X:170 
T:Pride of Slieve Aughty, The 
T:New York Jig, Nova Scotia
S:F.O'Reilly
F:file ID: cre.5/170pride_sa
B:CRE5.017 (MÃÂÃÂÃÂÃÂ³rtas Shliabh EachtaÃÂÃÂÃÂÃÂ­)
N:There's a good chance that this is a Larry Redican tune.
M:6/8
Q:160
R:jig
K:G
B/A/|GG,B, DGB|d^ce dBG|cBc ABc|d2e d2A|
GG,B, DGB|d^ce dBG|cBc ABc|edF G2:|
B/d/|gfg GBd|bag fed|cBc ABc|d2e def|
gfg GBd|bag fed|cBc ABc|edF G2:|

%%%

